src/Stylish/64/status/system-suspend-hibernate.svg

<?xml version="1.0" encoding="UTF-8" standalone="no"?>
<!-- Created with Inkscape (http://www.inkscape.org/) -->

<svg
   width="64"
   height="64"
   viewBox="0 0 64 64"
   version="1.1"
   id="svg5"
   inkscape:version="1.4.4 (dcaf3e7d9e, 2026-05-05)"
   sodipodi:docname="system-suspend-hibernate.svg"
   xmlns:inkscape="http://www.inkscape.org/namespaces/inkscape"
   xmlns:sodipodi="http://sodipodi.sourceforge.net/DTD/sodipodi-0.dtd"
   xmlns:xlink="http://www.w3.org/1999/xlink"
   xmlns="http://www.w3.org/2000/svg"
   xmlns:svg="http://www.w3.org/2000/svg">
  <sodipodi:namedview
     id="namedview7"
     pagecolor="#ffffff"
     bordercolor="#666666"
     borderopacity="1.0"
     inkscape:showpageshadow="2"
     inkscape:pageopacity="0.0"
     inkscape:pagecheckerboard="0"
     inkscape:deskcolor="#d1d1d1"
     inkscape:document-units="px"
     showgrid="false"
     inkscape:zoom="12.4375"
     inkscape:cx="32"
     inkscape:cy="31.919598"
     inkscape:window-width="1920"
     inkscape:window-height="1012"
     inkscape:window-x="0"
     inkscape:window-y="0"
     inkscape:window-maximized="1"
     inkscape:current-layer="svg5" />
  <defs
     id="defs2">
    <linearGradient
       inkscape:collect="always"
       xlink:href="#linearGradient2659"
       id="linearGradient2881"
       x1="16.000002"
       y1="3.0000002"
       x2="29.000002"
       y2="29.000002"
       gradientUnits="userSpaceOnUse"
       gradientTransform="matrix(2.153846,0,0,2.153846,-2.4615384,-2.4615384)" />
    <linearGradient
       inkscape:collect="always"
       id="linearGradient2659">
      <stop
         style="stop-color:#7a2ac0;stop-opacity:1;"
         offset="0"
         id="stop2655" />
      <stop
         style="stop-color:#b16cd5;stop-opacity:1;"
         offset="1"
         id="stop2657" />
    </linearGradient>
  </defs>
  <circle
     style="opacity:0.2;fill:#000000;fill-opacity:1;stroke:none;stroke-width:4.3077;stroke-linecap:round;stroke-linejoin:round;stroke-dasharray:none;stroke-opacity:1"
     id="path2871"
     cx="32"
     cy="33"
     r="28" />
  <circle
     style="opacity:1;fill:url(#linearGradient2881);fill-opacity:1;stroke:none;stroke-width:4.3077;stroke-linecap:round;stroke-linejoin:round;stroke-dasharray:none;stroke-opacity:1"
     id="path2873"
     cx="32"
     cy="32"
     r="28" />
  <path
     id="path291"
     style="fill:#ffffff;stroke-width:1.89474;stroke-linecap:round;stroke-linejoin:round"
     d="m 32,14 c -9.941115,0 -18,8.058885 -18,18 0,9.941115 8.058885,18 18,18 9.941115,0 18,-8.058885 18,-18 0,-9.941115 -8.058885,-18 -18,-18 z m 0,2 c 8.836547,0 16,7.163453 16,16 0,8.836547 -7.163453,16 -16,16 -8.836547,0 -16,-7.163453 -16,-16 0,-8.836547 7.163453,-16 16,-16 z m 0,10 a 6,6 0 0 0 -6,6 6,6 0 0 0 6,6 6,6 0 0 0 6,-6 6,6 0 0 0 -6,-6 z" />
</svg>

<?xml version="1.0" encoding="UTF-8" standalone="no"?>
<!-- Created with Inkscape (http://www.inkscape.org/) -->

<svg
   width="64"
   height="64"
   viewBox="0 0 64 64"
   version="1.1"
   id="svg5"
   inkscape:version="1.2.1 (9c6d41e410, 2022-07-14)"
   sodipodi:docname="system-suspend-hibernate.svg"
   xmlns:inkscape="http://www.inkscape.org/namespaces/inkscape"
   xmlns:sodipodi="http://sodipodi.sourceforge.net/DTD/sodipodi-0.dtd"
   xmlns:xlink="http://www.w3.org/1999/xlink"
   xmlns="http://www.w3.org/2000/svg"
   xmlns:svg="http://www.w3.org/2000/svg">
  <sodipodi:namedview
     id="namedview7"
     pagecolor="#ffffff"
     bordercolor="#666666"
     borderopacity="1.0"
     inkscape:showpageshadow="2"
     inkscape:pageopacity="0.0"
     inkscape:pagecheckerboard="0"
     inkscape:deskcolor="#d1d1d1"
     inkscape:document-units="px"
     showgrid="false"
     inkscape:zoom="8.5957668"
     inkscape:cx="3.49009"
     inkscape:cy="39.205345"
     inkscape:window-width="1920"
     inkscape:window-height="999"
     inkscape:window-x="0"
     inkscape:window-y="0"
     inkscape:window-maximized="1"
     inkscape:current-layer="svg5" />
  <defs
     id="defs2">
    <linearGradient
       inkscape:collect="always"
       id="linearGradient2659">
      <stop
         style="stop-color:#7a2ac0;stop-opacity:1;"
         offset="0"
         id="stop2655" />
      <stop
         style="stop-color:#b16cd5;stop-opacity:1;"
         offset="1"
         id="stop2657" />
    </linearGradient>
    <linearGradient
       inkscape:collect="always"
       xlink:href="#linearGradient2659"
       id="linearGradient4780"
       x1="2"
       y1="2"
       x2="30"
       y2="30"
       gradientUnits="userSpaceOnUse"
       gradientTransform="scale(2)" />
  </defs>
  <path
     d="M 26,4.9999999 C 7.797619,4.9999999 4,8.8796342 4,27 V 39 C 4,57.120366 7.797619,61 26,61 H 38 C 56.20238,61 60,57.120366 60,39 V 27 C 60,8.8796341 56.20238,4.9999998 38,4.9999998"
     style="opacity:0.2;fill:#000000;stroke-width:2;stroke-linecap:round;stroke-linejoin:round"
     id="path563" />
  <path
     id="path530"
     style="fill:url(#linearGradient4780);fill-opacity:1.0;stroke-width:2;stroke-linecap:round;stroke-linejoin:round"
     d="M 26,3.9999999 C 7.797637,3.9999999 4,7.8796522 4,26 V 38 C 4,56.120348 7.797637,60 26,60 H 38 C 56.202364,60 60,56.120348 60,38 V 26 C 60,7.8796521 56.202364,3.9999998 38,3.9999998 Z" />
  <path
     id="path291"
     style="fill:#ffffff;stroke-width:1.89474;stroke-linecap:round;stroke-linejoin:round"
     d="M 32 14 C 22.058885 14 14 22.058885 14 32 C 14 41.941115 22.058885 50 32 50 C 41.941115 50 50 41.941115 50 32 C 50 22.058885 41.941115 14 32 14 z M 32 16 C 40.836547 16 48 23.163453 48 32 C 48 40.836547 40.836547 48 32 48 C 23.163453 48 16 40.836547 16 32 C 16 23.163453 23.163453 16 32 16 z M 32 26 A 6 6 0 0 0 26 32 A 6 6 0 0 0 32 38 A 6 6 0 0 0 38 32 A 6 6 0 0 0 32 26 z " />
</svg>
